X:1
T: Dun's Frolic
C:
R:Strathspey
Q: 128
K:F
M:4/4
L:1/16
|:f2|c3F FFF2 c3F A4|c3F FFF2 c3B A3f|c3F FFF2 c3F Ac3|B2A2 G2A2 B2c2 d2f2|
c3F FFF2 c3F A4|c3F FFF2 c3B A3f|c3F FFF2 c3F Ac3|B2A2 G2A2 B2c2 d2e2|
f3g f2d2 c3d c2A2|f3g f2d2 e3f g2a2|f3g f2d2 c3d c2A2|g3G GGG2 B3c d2e2|
f3g f2d2 c3d c2A2|f3g f2d2 e3f g2a2|f3a d3f c3f A3f|g3G GGG2 B3c d2:|
